-----BEGIN PGP PUBLIC KEY BLOCK-----

mJMEYvEGpBMFK4EEACMEIwQA6knc/2gtbqDhPh5EzrymR4Hwi1Xf2S0aqMopA1zg
IeZzBgSfL+4fEfpXL4eAzvrk29jIXSizDEOgFpw3PW3Om1gASxub4Jo6EQrRgOdd
OlJl1bajIRC4pAoZafDzhOb+FkjJ61lEJzJ6pQtG0Yi24QWDBfXHkSiQSbZFvcC/
FTJpZua0GENla2kgR3VsY3UgPGNla2lAcW9zLmNoPojSBBMTCgA4FiEEYCAKxK52
HxYU1sRnZtaNqgc76YUFAmLxBqQCGwMFCwkIBwIGFQoJCAsCBBYCAwECHgECF4AA
CgkQZtaNqgc76YU7ggIGKhGjOpGq1KupRlH1//DT/h5rfbwY9WCZfCaD3NKD+Ly3
sOF/Mq/pow9vwEn99nbSVO8fk9s0MysiJwM7QjuOX60CBiMoQDTwZNPRRUVKM7nv
xqOzXTYJNf+XDuAts2WQCRjwZF2uPLVxl3OXkgNC6tmnJxlXVwQ0PQYW+I3aKk59
mhs4uJcEYvEGpBIFK4EEACMEIwQB2pA7Lzg7+PvGjWsBowHeMYcKfjbAEkXycxVn
WiHpZE3x3fck/SiMKkIr2h7eXLGNlG8GxWQWE4XmWxvvaSpHfiEAteZm+HAWHM2h
CXPg24MuDppCMBATKJLs2ojZJVOpsajIgTrKDZku6/ay/GTV02W+2q186eah4hkb
enJtFGHK4hUDAQoJiLoEGBMKACAWIQRgIArErnYfFhTWxGdm1o2qBzvphQUCYvEG
pAIbDAAKCRBm1o2qBzvphSQsAgdoBwIzWeI+z+SPc0SYWXc/2K8TGVZrpDjmXyo+
CK0Is7a/3fZMSVf67Hw75+/QDHZcl7MCP54xX6VhJzK9embNvAIHfqe4+a2wInfW
RgteE3ZYglY+89V6yt4j8ZBSrRa4CeB93oM60Ipi00o/vGoO7/ZsxTbdzEZpGPZO
gfhF8IKWDUGZAg0EYvgHEgEQAL6Vfjh93/OtVA/N0rKBqsF39fRsGkZqRP74p+Th
QEaXer7B3YZH2m4H1Hfvt2zyFTtTdOjyweC5RmjoNsP0Zv+Kz9ZqNJv2D3bP6syj
Dcpup8JipauRoiPbs4mBvOIVycwC28agVF9o8j/tM7ATDeNPsHztFd6IBNfiIvx/
MxSaR9mbQeSqOd6kxB5rPcrMxjgN8FwjjmTDOXcQgEUiWTjbyaEFTmIAAA2jI+yK
Z+oQ9EJQOPG9PyDs++mQF01mBFLpH28vHLMqL9/kqzBkgy+in+lFciEAoOEILKvY
YP5Pcmggqn2S9LUxC5xZ5fz5MVaHmoQDd7Tpe7QlJ08IR6PQEfToSJMywA5Tltaq
AsA70NWlLfYjT3YoC4wmUQ8KfPsgZdWR41jkpiuWyagqsE7cYX/OwLKJkO9JQuRU
lyu0EJg6uCodEjO8lZBpMnlXXkwPwJkgQvKMIZnwnLyF1mlpONhqXDRtSr7JECow
PmyWnoDW2e+PKpVOBT7JEarYcH3S8nQPc/XDjFEO40XxzTZ+607jXlhz+qTKHf/k
CMZKihyuV9dwyt4lelBZWy9efc2yK2OwDpc4mkw6CKkIPF++fxJIuX19Y0l/nmPt
8KQGiQX+UiLzVFVBvKNUI5XQ4Socks/1qw8fIAW9Smk1a1y9WI/FWZvnZ2OfD/H/
rVZVABEBAAG0NVRhdHUgU2Fsb3JhbnRhIChjb3d0b3duY29kZXIpIDx0YXR1LnNh
bG9yYW50YUBpa2kuZmk+iQJUBBMBCAA+FiEEKBGMBwyyKgF1oujUPRLKKsGfMYEF
AmL4BxICGwMFCQlmAYAFCwkIBwIGFQoJCAsCBBYCAwECHgECF4AACgkQPRLKKsGf
MYGfGxAAtMl39yEJbzNaBHrH1kN9TZ/l+AyGLyOMgsKJ6JB1D+95zdCoJUukmYT6
XoysjvkTsZh4vwi7QNc7bqccdIRsNr2QaT6iF04Ns537LooTm3qo8VodIbkaPWKJ
DuWJuas7sRmo9DOXh/CbNS+X/bH6RovlawLhLFvBMbaYajxZELP6GozjTJ4F4pjG
lOU3ZUGuVTbGQnUjStAhO0fByTV0KWB/i6nXe4GdrtOUIElzu+Kjc7AAVtdM8cQv
55+ufzOTRq4n5zChweabh32yEaLCJJQA4SdDwVnTwjA7kyg5RYrP8BFgu5HoUB3w
eoURFt9TFTYCVzItICFKLRz6PYaL08WQ1MAEQMel1OixoCAqlth0aR7/ax8DQEqZ
w1Eh8aOz5bQadfZzu0/qpzuIUII/RONe9HyOcKYfwFPUmJI3kL8k8fSEMTVm+a+C
zSGJ3jx7pm+TXJe8R213+sfS4zfJSzbwR91yqiSHApmLl25R6LOAbWAY0JbxEa+G
LmSzVsAEr2LnYkxnOcg0xvfmZnRsQrtguLcrwMTaF8hTrKDxaeVeXHd44rh7qNbF
ZuO4SZQnsERla/Pkgn2cUjVQAirtSDuu4z4Ifye2ke564anqCirf37SVN3/VJzb2
RVp2D8NdC0KYMOvDgG2nPyFe2GZOc1W8/8ZS7krV+21beA1T+h+5Ag0EYvgHEgEQ
ALClxqs54Q3lPO1ANO96Zz4Ndm5aKuYe/VPImaM6FTSEYYzMScopTpVmVQiDlhA1
iSdQ585//TmmBCawSGOMjw0EPcLKzpJVDrA6WQD4qkMqz91fDIm21gT4Qb8gzOPB
lbYNsXnQeSZPZUr+gWFFJ/Q9qv5xtVD+Y0sBULu55lYFVeV17OpW+Te0Nhhl5/1P
xCV/330tVcWCIzNEWvMstx3YoQcBfix7rkVPEh8VhgKuyEUgoNGLghY3NCq09XuZ
v3jBdjRXCx7mYwSCOaJ4Y+MEZid7YlTTFg0HG2XLXLdp4NdzE2U2txL8CR70CpYB
hThqC2hwJ59vWm3lDeWLSqDc+xUoMnmpYNx5v6SBxS4eC3AcUJUgKhBQyy/2nkX+
RYvfz85ZxNHaVDi0Z6sTZ2aXKoVa7uakQtyQB9dKkmhtmW1RunwI7rv2DSWT44lZ
KbF12VXJt1cIVoB44pBvTChA6RHW+ja0kfIaYavbQR5r5Rf6R0uiNVDBgKogJ2+c
rhike6GlPlyvOTqWiF9mkE8wd2lHsVBBl5ARbkRtwU1+hQTCyBvaqQb6FAgvlDvB
FqMeQZobda6FjbETKge4tJvbSE/mEja6G3GzBSX/4g6ONm0MKPMvPn1D4AOQNlgz
483d5HRQkOpgqXLj0pO7PbfMuW42M3CqjwrTLTlcYJAzABEBAAGJAjwEGAEIACYW
IQQoEYwHDLIqAXWi6NQ9EsoqwZ8xgQUCYvgHEgIbDAUJCWYBgAAKCRA9EsoqwZ8x
gZBtD/9vFmohQis9rzqhcQurX0T44VO8IpVDOCiGJoo9LofHauC289LZsm876teU
C9EAXIjyxfsOrR155k/Sld5+J2Ol+MrPVuFbxZ/tFTpA4pzQTKXz9ioJVmKCfUPM
mUXWvaauRlrRVE0uOHzo/9jVPtmGsCJHQ82/74sSA2w9svxO7WvJaXy9YV2WizjR
bzGV4/WcFTX05aF449T1Vg3zR4EPmKPYKfQsLElB3I06lUPTc/dhxq6T04c5UJ35
RVfYDtXB6ZdvjBEMvn2AB9IbJgsdioAXVcls5eSF5M9Gy23FdEiTO8D+COmZCaKg
1TdSGIxnUQmRsnjaWgU+/timVuYFegwAokXXjTb6w5W6wLUVQsxBC2lm8L9uChuo
Sp1POFlr8esoDjkEWlxpM7zSMm2jySJlHuKd/BfWAEatiDBeKzGKJg8jnJXAC9hN
w2dTWcP1WTmLJODHQE0EbWEs9pkG2RhqsOZSjQrJh/RjyZBmZ3tTSc4em12RH7nI
0PnI7b3/AZ+x7Up5lxE0aBxhAUobDvYcOJiw4QuKLCwWrJQxY8sTBAlq97+07hJh
JjXA/isDcgAhTbgYxAVnriWWMApAJFcvAMora0zIfPwj4ZP7T5tunPiiOQSbEIPF
d+BTLXfra0YV0RtpnzwdnFNrfSJe05c4u9YhhGnyG/elJvyJ35kBjQRgVVFjAQwA
lwC11l0qwdlfeZUdS/ovrELE0LfLQiIF9Il/VGe1cNiv5S5y8FmLTN6E8WKMeDnY
JCvbSuu+9RHQh+cELUXVECY5bAX2QzzIhqpodY6wMQLoBJBcgmp1UPFS9We7j3qs
OFG7agOzq/xNGjoRd85JJoWohPWK6fiNyl1h+BdAo91/SFHH+Wfdwj3BBUMe2o8U
idccP5koG1OALSmV1HStXoZxQIR963DFVvaWhUmGlw/H/r1G44XSTqd3vVGBBUob
HcKNl9BUaiN9fHn94Dw6W0wE8gms+jTCMmw4ERqPVjhsBfmLH7J18C1NlJ0+OJKQ
Mx4xXY2YUBnGNcO3fMhja2F+KsP0TD4ZrlXn7hdsqHQbUcYVltPXcDYiGBVbhkuE
tN75ZxH2GZYZkYL1mSvTwyV5tLxORiOy3TipasGcb6M54xplFJbHEVOew7azZQI8
lzGWhnTXzyBvOQfooyZiG9ERB27M7xunLF+INTImfotFiA/CZdtGKSU1JJLyM7V5
ABEBAAG0HlBvcG1hIFJlbWtvIDxyZW1rb3BAeWFob28uY29tPokBzgQTAQgAOBYh
BKpBdze9gFRW2zy93mYB5cCNzLuWBQJgVVFjAhsDBQsJCAcCBhUKCQgLAgQWAgMB
Ah4BAheAAAoJEGYB5cCNzLuWn0QL/3pMZnCpZ5K3ceSwsxu39mRWL+yWXoll5fs3
xgXbE2MFzJErrf34fmqQAgboUVpq1PyT7NrUNuDZeNcuZms12imkIG2JPdTx10Wk
NsTqhW5i5XR3d55P1uSncNxhmsCVIjQ49dpHXcGE6sbz2nxEvk/LILkv07kyhd8g
bmj3B11ANlmoQf3vf2x0OrIgiyMXy6CL3D8gHArFGu1hO3i7KXq38bopEHNO9tBe
qgXolua7u69lovp+rh21ZUZxutsrsXXBJqU2QZ1cOGmHFvEOkD1UYHk6aXWw3Dro
64a2xCMyE0mIgKUoLcx5vBQYu0yqdcbPHbLxiWZxiTR6tGNKipB7Abl09y4yhem7
6bTvZNgHhs4a6bJMTBPoWsmlddg2Fu2P94V8AncQmKJuPsN4dNyFih+4ct+764SY
oWCr6WtCjeCNZXzqUyJMf8Sd/LwJkMLb8OFuegVqTzPyhico4Xy+jt/80YIWclyE
ahgVpNT1xjPJQDulO5en+ejgoYwHc7kBjQRgVVFjAQwAqfVaX/iL1guWx10Xum2E
WJuCzu+H+RiAgt3KnxzXtMc8J4QzNV/Cr3vO3Y2a1qf0NO8o4dN4nHHXWbB9Vn5n
tG9VHt1Ha4WDLr7zEDyNpPiEe/sLrQLA5TD28kXIJ4WgDuVEYZ+z1tB6tkcZkUzx
6182oxCVKHU9lYIxAvQzg+XAwFNoHElCYAQDTryKDxEADAbGDEYGFHM476/MEzz9
5LqgatDIWaxE6RDSBjnjSA44ZHsJGwcHjrmz+RXgFnhQjC/9ywSzNZQNWzWjyS9q
gLmIEkHMb6mD/eQHrGA5SyvElqIJMMvXrRpnoG1l2FFiNn60wyuB+Fztfx9YgKlJ
JwdLfmDDQTuVInaLU5iTKvZZ9uh8ekajtYn3NUEbvAN1SK8gnWqTRhVIm/0wcBdt
NViTytTH7CM0L0vx4FZpru7c2KyFQx2G4/0VxIolCzHz2ROD3s2oRTvP6B5r5EdC
izrsJzrjMljvw1hp99AnXfJPtNMyeHKwkfxVX8Kxnk2nABEBAAGJAbYEGAEIACAW
IQSqQXc3vYBUVts8vd5mAeXAjcy7lgUCYFVRYwIbDAAKCRBmAeXAjcy7ltznC/9e
Y/f7EO5szFXgED0JYTGhYba4XjD8n9HjqK5JbCfWn3AT7GDwrWN974myc5uNzIj3
srPrVuNgdO4t8Fp63EtGQoYAh8xqKpxdUEbvjvhvIWexAETVzLvhgJmNrMQnRery
bYBGObSDPNiPXbTDJWqr8eoSrFaMfWGZLytsi+MdBf51Q9VUE3981L2Ta63a6MCH
93CLgU85IExOxa32i7L3QWQtrDWLrjQGPeMx7H6paaQhjY0geSIO9Ev2Kj6dVmMV
Osolz0TGOqsjSDuDZAJrSCRRBA73mG26bzAWGKPL3FYxF7gjkFkLjG35zFru9Iwg
v9xNM5/EXmxCOZHV8ZNA+PqQ4d0xVZ6oIuNHW8JhxL+KdOiAQs2kqMsw32B9GOYv
ZGeM1DNUvRhDrRcIBFsQ/NINWFPloDK/ZPtGH1f8Fw2yDy6HXNSfTgp8Kq8yZ8WY
kTtKv8TO9fSlYbCakdCPXuba6T637QAOHxAH7Cttqv82Vhp9Wg7NUcs3Uqa3DdqZ
AQ0EWUwTFgEIAKZ1MNJc/BIl5ht9i8egOXkLu/H/T4s5O6cMYk3fyk1AdhABme8b
Khz1mYKGuEuiKbvPgguqY2jx56CSd6lDd0Z1SKPg1UiFH6b7yKtrJNuw0e+jdQb3
Lt4zm1NKPI1iTKTl8BW5Ps6HMjMwD6q1zcZFXE1hEqdodqO36k5Kqv66gO0wbefp
4AwcICeGCHk1350IVw1P6zKXfMLCiUDXCvMbHE5qJ/7GLnDBeOYX+UC3g8Mi4NN6
0Db8Co8zjMALQG0LSKpWBXKmMVXcQB7Gb+DQs0yIb8z+SvPCM+rmB/UNj/nuNTTT
YWkp3v0eZHtsd1zh7aiUR/02UfF9s9cMOwcAEQEAAbQhQ2hyaXMgUG92aXJrIDxj
cG92aXJrQGdvb2dsZS5jb20+iQE4BBMBAgAiBQJZTBMWAhsDBgsJCAcDAgYVCAIJ
CgsEFgIDAQIeAQIXgAAKCRC6wwYiM5mUxGEuB/9fBPs9p3W0HSHQBT8ApbyU6B7n
O4LPU9vYZntvVUp4Q0xtgVPecTN5nWG7KXG/chGKabPKVgF2K2gI1GHBLebWwZyB
3O2ehMQqpHVu0JTdwLGM7MHytPDEpUM1EmRmAKLW1o5yDk4GVAaa4kIuD9keQVAK
/wWBEC+x6nZ7X/Fih51qiswVWVUDGBg5eDMJUZQ48TFtT4hm90ah4anuUP/7xn3x
XjUHoP0u5lF/RRXHDMkJfGs+NEZHMCCOECdBerhScPUQKLnHzjPokUjHEubVF9Lh
zNfHBP6T9FCOn+bTU/Y1nbj2fNtDyANADeWW3a2MDVnjfRU38o+Fl8MZZAjGuQEN
BFlMExYBCADZjKVdzSvGi6y4EE8oefvnXrfAtw90+bZBHZYxzrjd9f6nSjYHvB+r
ih/M10WbI+aXfGnaVpA+E8yDL8yMM4s7BsN+DvYX9RNlz6A6r0K9/adbKL19z3g7
0SWP+yRTbfQ7KYVXN8VkHzZAuyXTD2uiUYhR3d8p320PsKZX+LX2g1Z9SVwFqdDU
hoDLV35+YtfYR0Fo5kTQCjUC3VZ/FHMyPF3VTO20uIIg6UDLpEso7I4AKOOuokSt
vvH/AcCEXtSUbxd+wXZ2704P3c6ItfxOLpMFSQ+mBNi5Q8M3Rp6PSsT5UbLmN554
XlYI26xidlykSZCJPO3DBoeNVSsOi+LrABEBAAGJAR8EGAECAAkFAllMExYCGwwA
CgkQusMGIjOZlMRIhwgAkFYhjh4tAaGe/GSc+i+PGDTMfH0nUr92CfNyIdZ+Q1gi
YKw1eUt/3nWIp5KFSNC7rMtzHX7UYOjlmmDrjk3+jGHHXTv5mN+t44jAcn/VIdw6
quLCqlS0Z2WwKoA9aHUaI9jZBEH4BB/x+CUVa8arswCqFsCYdzIWPpGo2CUScln3
NfwZtwY9bXDBpRniEH4FoXnjIN5Ma8SfU1z6lYulVT2jyiFOYvJeOkvloN7rzLPL
wt18ziL4WOnMILib/VJI2cBg0iPedsC6p0RDMtIBWfjgAdKiaWDN5wxHpFmT9/Bv
NJKI5zetbWY0U4bvSIvP2/j8Elvp1txKUGXS6mbTlJkCDQRmPj80ARAA3ym+V6T+
g7x4qPn3P4z6LCEDwV5Qmzob3pI/pEnXH60S0w6clHr8ASkUk+rzOftjEgBHQ/Ky
jJkhUTcf4VpwV5lwkhuSlM853iwdb5Ik84BjHeQp0wKd9lOKK4/hvShoqmcgXdqn
cWNOkNb/cL1dzykCFrCM2h977EtQSryAayJMLo+29V/aiaiV7Ku6i8CiP0XCueQV
5cvleYtWBWT9oadA418vYaqtF/r9/B4Pi/kMJIAh+vBNfIyra3OWitv+EYCi+8jz
nFEY/1hUwp2aqfD+iMY0qqpdhtXcj6saAW6XuC+m1tt/L8MR9Y8sbtIad4jvolLD
KX0pTH+Dcnkvkt6CP82EuS+2VUNzcUV0nNCuwgc8VyZnaeelwu+Xtj1Pi8dd6P7z
j44sfqNX+pAieX9pi+GYPAH4PORhvwa2HQ7ToUUzxkJUuzvmHpYcKA0U9MQ1z1Rl
/cd8dTbGr0nuAM3co1Cvl5q/qo0dBbTlI7S3cNqTosRMjHV74qTOOJc8oLsiz8yH
g8XF1OYKeL0yohKqzlGzJnC3R7hUDKxsYeT8AncyIRte/6XEI1UgAcRgFUlQKxst
MQv0k7klkhLR3YjKGQy29GazsvmOL+Zxx+KmAcNVYWF5YN32V86iHU6aPU+CbTsw
KoeSwDD4L9cWZS80qN4OhFQ2lQ7EHFqaPcUAEQEAAbQgU2lnc3RvcmUgSmF2YSA8
dGFjQHNpZ3N0b3JlLmRldj6JAk4EEwEKADgWIQQwC0nBTfp+CtnYUVQA4Agin12v
NwUCZj4/NAIbAwULCQgHAgYVCgkICwIEFgIDAQIeAQIXgAAKCRAA4Agin12vN8Cn
D/4/K0pBEZKu0c7G1vv+zFBMzaeN6Qi3uZqWBlcxw//pGJ3U16A0+3HH21jr0Pxl
qvKNrIl2VMITpYPyo3xylXPuhf6lvYwa95xLi2zavSpJdc1j2yT7frt3k6TgNEhM
B0MZKdXDUaGPjqtRMky6Wz1LOiTDHqZIadYIHl43lh/9Cnz8Xw42YQEGIXollO8K
mWeAyZPRinlRk/1zvYCtHN3SLdit91Ry9HA0PfziZw/UtipkyhlLHrI4FIXCDdGA
FU+HyfBzsQEXokjge+TuxPYAD1OgxrvwU278oHJOyQhtPz7tqxZplhhX41eiV3cQ
RWKheInA0FeMEvpsrIOXeOdqu+jF4vI5fGuWEgBs74RRyp3/QFoL3lBwlWrh4nTG
g+7EbCpnKB6n7iwTURxaSuoKqfgo0lEu2clAD9ZXYKnDT87NVGKB0/x3vPwCeocA
NxculwAN9SvWAzmeYR5+RzJVt1/0NtQWhRD2K5H33YLxuupbirJoTRBKR6vKL23J
vtO1XkcJo/f9ZX/ihIbnmaBs6tCTx9WmV6ZHhXF0EXLjVO+9OPcUX5cY6y6JM2Xd
swOyleHSzMXH5wbnLTlqQkH4K2NdcYbSmZC1Obf1fHvKSiz44g0nBrRX2/fLP396
rG5f5q90wYwIfiV7zC9DVvsVACpCDjrARRr5ohsaOiYAlbkCDQRmPj80ARAAuB8o
PB0zRGvI+y1itbpH/h25Eh/dP2Cqe/mq3tSK7gWCrvtaXyR++SUDBSdO7pchXuio
irRjIwCRFda24aAfP9wI6p3nrRc6GawWpO5tWNGjJN31jAwxu+goxoUvFrwBO13y
WTU1pQm2/Mwfip+ENHKjrF0Ht5mBinWrSsUTtB8GdYWqDEkzPruX8/Sw8ZskDX0u
y9Kz7w6Hl9yTlOyjUI21b4HOvajsWNQ+bmLvkYqpyTA5kZcT5licoOS+NgUwZ6Ij
ogHVfkE65RCkXQEmdx5cJwx3v/mknnNdw5U3iesrAEmUsJM5TKGsnYgLXmCqf8Rp
WhKSt+G4tG7VpTDXYa03gPGa2nwrS1l9XKquGQzto/okxOoJUIeVz7Ab8rUdpmsw
m8nt4x5YdZ0wvd0GqdnsCW5BP8tGGPtM1BNSykZw8CMYzdLiDw06WM0fgEW4o2oa
4j03ng/NOzytMW80f7G2T6uMCdI9qzNkDFJLNXTIsv5wvON0lheHYcK2XBmmnUQm
AhRS44lvtIwM+/8H5YoAi4pIw7qmuAt7xk3QXJdOnHMSmoRXrrFIeKyTLxD66YJv
zJnSDZMAW6jdvxO/o0cZeVO2tVa09orTvvnUasz+wTF7scd7IXDj2T1R/iN6xeGI
iOTkSmb5l/8RyiFqKugIBcqkMub3m/K8Rth0sFkAEQEAAYkCNgQYAQoAIBYhBDAL
ScFN+n4K2dhRVADgCCKfXa83BQJmPj80AhsMAAoJEADgCCKfXa83gZYQALUS52gj
eBnVZUr4sbEiRpX5usnLDQErY/M00bwpKaHWxQt/gqd0QWPAfy2qJCRqa+xzmcFr
EVKhMnr8RNqzDktvyYSC30jXBaIqdQKueAbqz5E2hBOL8uVdLEuTjXMBnqG5WmqD
FhJY0AretvNpHoeFt4j7e/6DUuQL+5837HfU96F5pJmgIe2c1pQxHRrjlp8GUILD
aY2TpptMExiGFWSba42Vzf/lW+XR8WEdjQe1acuStHkfT1LwYrWNfA64ORQ9N6vR
TpNXrQTns5wiQidwoys9DuevWhG3ZT9smgXB/th3fnaZWCbixQMMUTpD8JdkN1NB
v7P/gZh60rZsCdvrimERg7ep3cfIGsw6824fUe+lvTAFKhlWHoeJtwa7V4bkXGVL
Y4glOVrY0NZtQHAPk00cO7So9hPJbrgB7Aahmlf1+2eIT7QZbJpT6SZNJyLgcA8w
IjxCL+QHqpbbBkM+6JB0ma+ps13ltRrTNZ4YR7BYQD9PJa8hiitCzvW6kMeez1rx
9dRny8d0BW+lAbAoLsB8Zna4Oy9WBjdKGkp0okF7NafH36Fv0adDTFbxjydB+isd
c6s5VGaWxpxq7tg6NdEK+xVeOvrM8O8M7n+Ovlh+VZWdo96Qf4aVJYCoWWZ/tkzL
wTi4ulWxw4yzJbgQHfr4LF/2NFoaNotES2Rr
=SprR
-----END PGP PUBLIC KEY BLOCK-----
